X: 0810
T: Lassie wi' the Yellow Coatie
P: Lassie wi' the Yellow Coatie
C:Rutherford 1756/Bremner 1759
R:Reel (8x32)
B:RSCDS 8-10
Z:Anselm Lingnau <anselm@strathspey.org>
M:C|
L:1/8
K:G
A|"G"G2 GB d>e gd|"C"e/e/e "G"gd "C"edeg|\
  "G"g>G GB d>e gd|"C"e/f/g "G"dB "Em"AG EA|
  "G"G2 GB d>e gd|"C"e/e/e "G"gd "C"edeg|\
  "G"g>G GB d>e gd|"C"e/f/g "G"dB "Em"AG E||
a|"Em"g>a bg "Am"ae "G"gd|"G7"Bdde =fged|\
  "Em"g>a bg "C"ae "G"gd|"C"e/f/g "G"dB "Em"AG E a|
  "Em"g>a bg "Am"ae "G"gd|"G7"Bdde =fged|\
  "Em"g>a bg "C"ae "G"gd|"C"e/f/g "G"dB "Em"AG E|]
%%center Book08/0810-Lassie_wi_the_Yellow_Coatie-AL.abc

%%sep 1 1 500
%%sep 1 1 500

